X: 901
T: The Kinnegad Slashers.
T: Land of Sweet Erin
T: The Powers of Whiskey
T: Bannocks of Barley Meal
B:O'Neill's 901
N:"collected by F. O'Neill."
Z:Transcribed by Tom Keays (htkeays@mailbox.syr.edu)
Z:abc 1.6
M:6/8
R:Jig
L:1/8
K:D
A | d>ed dAF | A>BA ABc | d>ed dAF | (E<e)e e2f |
d>ed dAF | ABA Aag | {g}fef dBA | (B<d)d d2 :|
|| A | d>fa afd | c>de ecA | d>fa afd | (f<a)a a2A |
(d<f)a afd | c>de eag | {g}fef dBA | (B<d)d d2 :|
|| ((3A/2B/2c/2) | dAF dAF | A>BA ABc | dAF dAF | (E<e)e e2f |
dAF dAF | A>BA Aag | {g}f>ef dBA | (B<d)d d2 :|


